Simply-Red-Circles/scalable/places/folder-publicshare.svg

<svg xmlns="http://www.w3.org/2000/svg" width="48" height="48" viewBox="0 0 12.7 12.7"><path fill="#a02c2c" d="M6.344.073a6.29 6.29 0 0 0-6.289 6.29 6.29 6.29 0 0 0 6.29 6.288 6.29 6.29 0 0 0 6.288-6.289A6.29 6.29 0 0 0 6.344.072zm-.018.936a5.407 5.407 0 0 1 5.407 5.407 5.407 5.407 0 0 1-5.407 5.407A5.407 5.407 0 0 1 .92 6.416 5.407 5.407 0 0 1 6.326 1.01zm2.032 1.383a1.52 1.52 0 0 0-1.52 1.519 1.52 1.52 0 0 0 .014.187L4.347 5.35a1.52 1.52 0 0 0-1.053-.426 1.52 1.52 0 0 0-1.52 1.519 1.52 1.52 0 0 0 1.52 1.52 1.52 1.52 0 0 0 1.054-.427L6.852 8.79a1.52 1.52 0 0 0-.013.186 1.52 1.52 0 0 0 1.52 1.52 1.52 1.52 0 0 0 1.518-1.52 1.52 1.52 0 0 0-1.519-1.52 1.52 1.52 0 0 0-1.054.427L4.801 6.63a1.52 1.52 0 0 0 .012-.187 1.52 1.52 0 0 0-.013-.187l2.506-1.252a1.52 1.52 0 0 0 1.052.426 1.52 1.52 0 0 0 1.52-1.52 1.52 1.52 0 0 0-1.52-1.518z"/></svg>

<?xml version="1.0" encoding="UTF-8" standalone="no"?>
<svg
   xmlns:dc="http://purl.org/dc/elements/1.1/"
   xmlns:cc="http://creativecommons.org/ns#"
   xmlns:rdf="http://www.w3.org/1999/02/22-rdf-syntax-ns#"
   xmlns:svg="http://www.w3.org/2000/svg"
   xmlns="http://www.w3.org/2000/svg"
   xmlns:sodipodi="http://sodipodi.sourceforge.net/DTD/sodipodi-0.dtd"
   xmlns:inkscape="http://www.inkscape.org/namespaces/inkscape"
   width="48"
   height="48"
   viewBox="0 0 12.7 12.7"
   version="1.1"
   id="svg4"
   sodipodi:docname="folder-publicshare.svg"
   inkscape:version="0.92.4 (5da689c313, 2019-01-14)">
  <metadata
     id="metadata10">
    <rdf:RDF>
      <cc:Work
         rdf:about="">
        <dc:format>image/svg+xml</dc:format>
        <dc:type
           rdf:resource="http://purl.org/dc/dcmitype/StillImage" />
        <dc:title></dc:title>
      </cc:Work>
    </rdf:RDF>
  </metadata>
  <defs
     id="defs8" />
  <sodipodi:namedview
     pagecolor="#ffffff"
     bordercolor="#666666"
     borderopacity="1"
     objecttolerance="10"
     gridtolerance="10"
     guidetolerance="10"
     inkscape:pageopacity="0"
     inkscape:pageshadow="2"
     inkscape:window-width="1085"
     inkscape:window-height="480"
     id="namedview6"
     showgrid="false"
     inkscape:zoom="4.9166667"
     inkscape:cx="2.1355932"
     inkscape:cy="24"
     inkscape:window-x="0"
     inkscape:window-y="25"
     inkscape:window-maximized="0"
     inkscape:current-layer="svg4" />
  <path
     d="m 6.344,0.073 a 6.29,6.29 0 0 0 -6.289,6.29 6.29,6.29 0 0 0 6.29,6.288 6.29,6.29 0 0 0 6.288,-6.289 6.29,6.29 0 0 0 -6.289,-6.29 z M 6.326,1.009 A 5.407,5.407 0 0 1 11.733,6.416 5.407,5.407 0 0 1 6.326,11.823 5.407,5.407 0 0 1 0.92,6.416 5.407,5.407 0 0 1 6.326,1.01 Z M 8.358,2.392 A 1.52,1.52 0 0 0 6.838,3.911 1.52,1.52 0 0 0 6.852,4.098 L 4.347,5.35 A 1.52,1.52 0 0 0 3.294,4.924 1.52,1.52 0 0 0 1.774,6.443 1.52,1.52 0 0 0 3.294,7.963 1.52,1.52 0 0 0 4.348,7.536 L 6.852,8.79 A 1.52,1.52 0 0 0 6.839,8.976 1.52,1.52 0 0 0 8.359,10.496 1.52,1.52 0 0 0 9.877,8.976 1.52,1.52 0 0 0 8.358,7.456 1.52,1.52 0 0 0 7.304,7.883 L 4.801,6.63 A 1.52,1.52 0 0 0 4.813,6.443 1.52,1.52 0 0 0 4.8,6.256 L 7.306,5.004 A 1.52,1.52 0 0 0 8.358,5.43 1.52,1.52 0 0 0 9.878,3.91 1.52,1.52 0 0 0 8.358,2.392 Z"
     id="path2"
     inkscape:connector-curvature="0"
     style="fill:#a02c2c" />
</svg>
